!!!!SEGMENT: Snf0121-Egregie_Dei_martyr--Zwickau_1676_1788.krn
!!!id: Snf0121
!!!AGN: Motet
!!!SCT: Edwards, Gasch, Tröster (2021)
!!!voices: 3
!!!COM: Ludwig Senfl
!!!OTL: Egregie Dei martyr (Zwickau 1676-1788)
**kern	**text	**kern	**text	**kern	**text
*part3	*part3	*part2	*part2	*part1	*part1
*staff3	*staff3	*staff2	*staff2	*staff1	*staff1
*I"Bassus	*	*I"Tenor	*	*I"Superius	*
*I'B	*	*I'T	*	*I'S	*
*clefF4	*	*clefGv2	*	*clefG2	*
*	*	*	*	*	*
*k[]	*	*k[]	*	*k[]	*
*	*	*	*	*	*
*M2/1	*	*M2/1	*	*M2/1	*
*met(C|)	*	*met(C|)	*	*met(C|)	*
!!section: Prima pars: Egregie Dei martyr
!!!OMD: Prima pars: Egregie Dei martyr
=1	=1	=1	=1	=1	=1
!	!	!	!	!LO:TX:a:t=Altus not extant	!
0C	E-	0r	.	0r	.
=2	=2	=2	=2	=2	=2
1C	-gre-	0r	.	0r	.
1F	.	.	.	.	.
=3	=3	=3	=3	=3	=3
2E	.	0r	.	0r	.
2.F	.	.	.	.	.
4G	.	.	.	.	.
4A	.	.	.	.	.
4B	.	.	.	.	.
=4	=4	=4	=4	=4	=4
4c	.	0r	.	0r	.
4B	.	.	.	.	.
4A	.	.	.	.	.
4G	.	.	.	.	.
2A	.	.	.	.	.
2A	-gi-	.	.	.	.
=5	=5	=5	=5	=5	=5
1G	-e,	0G	E-	0r	.
2r	.	.	.	.	.
2C	e-	.	.	.	.
=6	=6	=6	=6	=6	=6
2BB	-gre-	1G	-gre-	0g	E-
2.C	.	.	.	.	.
.	.	1c	.	.	.
4D	.	.	.	.	.
4E	.	.	.	.	.
4F	.	.	.	.	.
=7	=7	=7	=7	=7	=7
2G	.	2B	.	1g	-gre-
2C	-gi-	2.c	.	.	.
1C	-e	.	.	1cc	.
.	.	4d	.	.	.
.	.	4e	.	.	.
.	.	4f	.	.	.
=8	=8	=8	=8	=8	=8
0r	.	4g	.	1b	.
.	.	4f	.	.	.
.	.	4e	.	.	.
.	.	4d	.	.	.
.	.	2e	.	1cc	-gi-
.	.	2e	-gi-	.	.
=9	=9	=9	=9	=9	=9
0r	.	0d	-e	1dd	.
.	.	.	.	1dd	-e
=10	=10	=10	=10	=10	=10
1E	De-	2r	.	0r	.
.	.	2G	De-	.	.
1D	-i	2A	.	.	.
.	.	2B	.	.	.
=11	=11	=11	=11	=11	=11
1C	mar-	2c	-i	0r	.
.	.	1A	mar-	.	.
1BB	.	.	.	.	.
.	.	2G#i	.	.	.
=12	=12	=12	=12	=12	=12
1AA	-tyr,	2A	.	1ee	De-
.	.	2c	.	.	.
1r	.	2.d	.	1dd	-i
.	.	4e	.	.	.
=13	=13	=13	=13	=13	=13
1A	[De-	2f	.	1cc	mar-
.	.	1e	.	.	.
1G	-i	.	.	1b	.
.	.	[2d	-tyr,	.	.
=14	=14	=14	=14	=14	=14
1F	mar-	2d]	.	1a	-tyr,
.	.	1c	mar-	.	.
1E	.	.	.	1r	.
.	.	[2B	.	.	.
=15	=15	=15	=15	=15	=15
1D	-tyr,]	4B]	.	0r	.
.	.	4A	.	.	.
.	.	1d	.	.	.
2r	.	.	.	.	.
2A	De-	2c	.	.	.
=16	=16	=16	=16	=16	=16
2D	-i	2d	.	0r	.
2G	mar-	2B	.	.	.
1F	.	2.c	.	.	.
.	.	4A	.	.	.
=17	=17	=17	=17	=17	=17
2E	.	2B	.	1ee	[De-
2C	.	2c	.	.	.
1D	.	1A	-tyr,	1dd	-i
=18	=18	=18	=18	=18	=18
1AA	-tyr,	2r	.	1cc	mar-
.	.	2A	[mar-	.	.
1r	.	2.B	.	1b	.
.	.	4c	.	.	.
=19	=19	=19	=19	=19	=19
2r	.	1d	.	1a	-tyr,]
2D	De-	.	.	.	.
2.E	-i	1B	-tyr,]	1r	.
4F	.	.	.	.	.
=20	=20	=20	=20	=20	=20
2G	mar-	0r	.	1r	.
2A	.	.	.	.	.
2B	.	.	.	2r	.
[2c	.	.	.	[2ee	De-
=21	=21	=21	=21	=21	=21
2c]	.	0r	.	2ee]	.
2B	.	.	.	2dd	-i
2A	.	.	.	2cc	mar-
2G	.	.	.	[2b	.
=22	=22	=22	=22	=22	=22
2d	.	1r	.	4b]	.
.	.	.	.	4a	.
2c	.	.	.	1a	.
1B	.	1G	Se-	.	.
.	.	.	.	2g	.
=23	=23	=23	=23	=23	=23
2.A	.	[0c	-ba-	1a	-tyr,
4G	.	.	.	.	.
2F	.	.	.	1r	.
2E	.	.	.	.	.
=24	=24	=24	=24	=24	=24
1F	-tyr,	0c]	.	2r	.
.	.	.	.	1a	De-
1C	Se-	.	.	.	.
.	.	.	.	2g	-i
=25	=25	=25	=25	=25	=25
[0F	-ba-	[0A	-sti-	1.f	mar-
.	.	.	.	2e	.
=26	=26	=26	=26	=26	=26
0F]	.	0A_	.	2d	.
.	.	.	.	2c	.
.	.	.	.	2.f	.
.	.	.	.	4g	.
=27	=27	=27	=27	=27	=27
1D	-sti-	0A]	.	0a	-tyr,
1F	.	.	.	.	.
=28	=28	=28	=28	=28	=28
0C	-a-	0c	.	2r	.
.	.	.	.	2g	Se-
.	.	.	.	2cc	-ba-
.	.	.	.	2a	-sti-
=29	=29	=29	=29	=29	=29
1C	-ne,	0G	-a-	1cc	-a-
2r	.	.	.	1g	.
2C	prin-	.	.	.	.
=30	=30	=30	=30	=30	=30
2BB	.	1G	-ne,	1g	-ne,
2E	.	.	.	.	.
1D	.	1r	.	1a	prin-
=31	=31	=31	=31	=31	=31
1G	.	1d	prin-	1b	.
1G	-ceps	1e	.	1g	-ceps
=32	=32	=32	=32	=32	=32
1A	.	[0c	-ceps	0r	.
1F	.	.	.	.	.
=33	=33	=33	=33	=33	=33
2r	.	0c]	.	0r	.
2F	ac	.	.	.	.
2F	pro-	.	.	.	.
2F	-pa-	.	.	.	.
=34	=34	=34	=34	=34	=34
1G	-ga-	0r	.	0r	.
1A	.	.	.	.	.
=35	=35	=35	=35	=35	=35
0G	-tor,	0r	.	2r	.
.	.	.	.	2g	ac
.	.	.	.	2g	pro-
.	.	.	.	2g	-pa-
=36	=36	=36	=36	=36	=36
1r	.	0r	.	1a	-ga-
2r	.	.	.	1b	.
2G	[ac	.	.	.	.
=37	=37	=37	=37	=37	=37
2A	pro-	2r	.	[0a	-tor,
2A	-pa-	2c	ac	.	.
1A	-ga-	2c	pro-	.	.
.	.	2c	-pa-	.	.
=38	=38	=38	=38	=38	=38
1D	.	1d	-ga-	0a]	.
1A	.	1e	.	.	.
=39	=39	=39	=39	=39	=39
1B	.	[0d	-tor,	1r	.
1G	-tor,]	.	.	2r	.
.	.	.	.	2b	ac
=40	=40	=40	=40	=40	=40
2r	.	0d]	.	2a	pro-
2G	ac	.	.	2.b	-pa-
2G	pro-	.	.	.	.
.	.	.	.	4a	.
2G	-pa-	.	.	4g	.
.	.	.	.	4f	.
=41	=41	=41	=41	=41	=41
1A	-ga-	0r	.	2e	.
.	.	.	.	1a	-ga-
1B	.	.	.	.	.
.	.	.	.	2g#i	.
=42	=42	=42	=42	=42	=42
0A	-tor,	2r	.	2.a	-tor,
.	.	2c	[ac	.	.
.	.	.	.	4b	.
.	.	2c	pro-	4cc	.
.	.	.	.	4b	.
.	.	2c	-pa-	4a	.
.	.	.	.	4g	.
=43	=43	=43	=43	=43	=43
0r	.	1d	-ga-	2f	.
.	.	.	.	2ff	ac
.	.	1e	.	2ee	pro-
.	.	.	.	[2gg	-pa-
=44	=44	=44	=44	=44	=44
1D	prin-	1d	-tor,	2gg]	.
.	.	.	.	2ff	.
1E	.	1r	.	2.gg	-ga-
.	.	.	.	4ff	.
=45	=45	=45	=45	=45	=45
1C	-ceps,	2r	.	4ee	.
.	.	.	.	4dd	.
.	.	2G	ac	2cc	.
2r	.	2G	pro-	2b	.
2C	[ac	2G	-pa-	[2cc	.
=46	=46	=46	=46	=46	=46
2C	pro-	2A	-ga-	4cc]	.
.	.	.	.	4dd	.
2C	-pa-	2c	.	2ee	.
1D	-ga-	2B-X	.	1ff	.
.	.	[2A	.	.	.
=47	=47	=47	=47	=47	=47
1E	.	2A]	.	1gg	.
.	.	2G	.	.	.
[1D	-tor]	[1A	.	[1ff	.
=48	=48	=48	=48	=48	=48
0D]	.	0A_	.	2ff]	.
.	.	.	.	2dd	.
.	.	.	.	1dd	-tor
=49	=49	=49	=49	=49	=49
0r	.	1A]	.	2r	.
.	.	.	.	2cc	san-
.	.	1F	-tor	2cc	-ctis-
.	.	.	.	2cc	-si-
=50	=50	=50	=50	=50	=50
1r	.	1G	.	1b	-mo-
2r	.	[1A	.	1cc	.
2F	san-	.	.	.	.
=51	=51	=51	=51	=51	=51
2F	-ctis-	1A]	.	1a	-rum,
2F	-si-	.	.	.	.
1E	-mo-	2r	.	1g	.
.	.	2c	san-	.	.
=52	=52	=52	=52	=52	=52
1F	.	2c	-ctis-	2r	.
.	.	2c	-si-	2cc	san-
1D	-rum	1B	-mo-	2dd	-ctis-
.	.	.	.	2dd	-si-
=53	=53	=53	=53	=53	=53
1C	.	1c	.	2.ee	-mo-
.	.	.	.	4dd	.
1r	.	1A	-rum	4cc	.
.	.	.	.	4b	.
.	.	.	.	[2cc	.
=54	=54	=54	=54	=54	=54
0r	.	1G	.	2cc]	.
.	.	.	.	2b	.
.	.	2r	.	2cc	.
.	.	2A	.	[2a	.
=55	=55	=55	=55	=55	=55
1r	.	1B	.	2a]	.
.	.	.	.	2g	-rum
1D	prae-	1r	.	2r	.
.	.	.	.	[2a	prae-
=56	=56	=56	=56	=56	=56
1D	-ce-	1A	prae-	2a]	.
.	.	.	.	1a	-ce-
1F	.	1A	-ce-	.	.
.	.	.	.	[2cc	.
=57	=57	=57	=57	=57	=57
1C	-pto-	1c	.	2cc]	.
.	.	.	.	1g	-pto-
1C	-rum,	1G	-pto-	.	.
.	.	.	.	[2g	-rum,
=58	=58	=58	=58	=58	=58
0E	.	1G	-rum,	4g]	.
.	.	.	.	4a	.
.	.	.	.	2b	.
.	.	1r	.	4cc	.
.	.	.	.	4b	.
.	.	.	.	4a	.
.	.	.	.	4g	.
=59	=59	=59	=59	=59	=59
0D	.	1A	ec-	2f	.
.	.	.	.	1g	.
.	.	1A	-ce	.	.
.	.	.	.	2f#i	.
=60	=60	=60	=60	=60	=60
1G	.	0B	no-	0g	.
1r	.	.	.	.	.
=61	=61	=61	=61	=61	=61
1D	ec-	0A	.	0r	.
1D	-ce	.	.	.	.
=62	=62	=62	=62	=62	=62
0E	no-	0G	-men	2r	.
.	.	.	.	2.g	ec-
.	.	.	.	4a	.
.	.	.	.	4b	.
.	.	.	.	4cc	.
=63	=63	=63	=63	=63	=63
0D	.	1A	tu-	4dd	.
.	.	.	.	4ee	.
.	.	.	.	4ff	.
.	.	.	.	4ee	.
.	.	1B	.	4dd	.
.	.	.	.	4cc	.
.	.	.	.	2dd	.
=64	=64	=64	=64	=64	=64
0C	-men	2.c	.	1g	-ce
.	.	4B	.	.	.
.	.	2A	.	1cc	no-
.	.	[2G	.	.	.
=65	=65	=65	=65	=65	=65
0r	.	2G]	.	2b	-men
.	.	4F	.	1a	tu-
.	.	4E	.	.	.
.	.	1D	-um,	.	.
.	.	.	.	4g	.
.	.	.	.	4f	.
=66	=66	=66	=66	=66	=66
0r	.	1A	ec-	1.e	.
.	.	1A	-ce	.	.
.	.	.	.	2f	.
=67	=67	=67	=67	=67	=67
0r	.	0B	no-	2g	.
.	.	.	.	1a	.
.	.	.	.	2g#i	.
=68	=68	=68	=68	=68	=68
1r	.	0A	.	1a	-um,
2r	.	.	.	[1cc	no-
2AA	tu-	.	.	.	.
=69	=69	=69	=69	=69	=69
2.C	.	0G	-men	1cc]	.
4D	.	.	.	.	.
1E	.	.	.	1b	-men
=70	=70	=70	=70	=70	=70
0AA	.	0A	tu-	2a	tu-
.	.	.	.	1cc	.
.	.	.	.	4b	.
.	.	.	.	4a	.
=71	=71	=71	=71	=71	=71
[0E	.	0B	-um,	0g	-um
=72	=72	=72	=72	=72	=72
0E]	.	1r	.	1r	.
.	.	1G	no-	1b	in
=73	=73	=73	=73	=73	=73
1D	.	1A	.	0dd	li-
1G	.	1B	.	.	.
=74	=74	=74	=74	=74	=74
1C	-um	2G	.	1cc	-bro
.	.	2c	.	.	.
1r	.	2B	.	1dd	.
.	.	2G	-men	.	.
=75	=75	=75	=75	=75	=75
1r	.	2.g	tu-	[0b	vi-
.	.	4f	.	.	.
1E	in	1e	.	.	.
=76	=76	=76	=76	=76	=76
0G	li-	1d	-um	0b]	.
.	.	1B	in	.	.
=77	=77	=77	=77	=77	=77
1F	-bro	0d	li-	1a	.
1G	.	.	.	1b	-tae,
=78	=78	=78	=78	=78	=78
1E	vi-	1c	-bro	2r	.
.	.	.	.	1g	vi-
1D	.	1d	.	.	.
.	.	.	.	2f	.
=79	=79	=79	=79	=79	=79
1E	-tae,	1B	vi-	1g	.
2r	.	1A	.	1a	.
2F	vi-	.	.	.	.
=80	=80	=80	=80	=80	=80
2E	.	1B	-tae,	1g	-tae
2.G	.	.	.	.	.
.	.	2r	.	1dd	cae-
4F	.	.	.	.	.
2G	.	2B	vi-	.	.
=81	=81	=81	=81	=81	=81
2A	.	2c	.	1a	-le-
2F	.	2A	.	.	.
2G	.	1B	.	1g	.
2E	.	.	.	.	.
=82	=82	=82	=82	=82	=82
2F	.	1A	-tae	1a	-stis
2D	.	.	.	.	.
1E	.	1r	.	1r	.
=83	=83	=83	=83	=83	=83
1D	-tae	1d	cae-	2r	.
.	.	.	.	2a	a-
1r	.	1A	-le-	1cc	-scri-
=84	=84	=84	=84	=84	=84
1G	cae-	1G	.	2.dd	.
.	.	.	.	4ee	.
1D	-le-	[1A	-stis	1ff	.
=85	=85	=85	=85	=85	=85
1C	.	0A]	.	1ee	.
1D	-stis	.	.	1dd	.
*	*	*	*	*	*
=86	=86	=86	=86	=86	=86
0r	.	0r	.	1cc	.
.	.	.	.	1b	.
=87	=87	=87	=87	=87	=87
1r	.	1r	.	2cc	.
.	.	.	.	1dd	.
2r	.	1e	a-	.	.
2C	a-	.	.	2cc	-ptum
=88	=88	=88	=88	=88	=88
1G	-scri-	1d	.	1dd	est,
2A	.	1c	.	1a	a-
2F	.	.	.	.	.
=89	=89	=89	=89	=89	=89
1G	.	1B	.	1g	.
2A	.	2c	-scri-	1f	-scri-
2F	.	[2d	.	.	.
=90	=90	=90	=90	=90	=90
2G	.	2d]	.	1e	.
2A	.	2c	-ptum	.	.
2D	.	1d	est,	2f	.
2G	.	.	.	[2g	.
=91	=91	=91	=91	=91	=91
1A	.	0r	.	2g]	.
.	.	.	.	2f#i	-ptum
2.G	.	.	.	1g	est,
4F	.	.	.	.	.
=92	=92	=92	=92	=92	=92
2E	.	0r	.	0r	.
2D	.	.	.	.	.
1E	-ptum	.	.	.	.
=93	=93	=93	=93	=93	=93
1D	est	1r	.	2r	.
.	.	.	.	1a	et
2r	.	2r	.	.	.
[2D	et	[2d	et	2a	me-
=94	=94	=94	=94	=94	=94
2D]	.	2d]	.	2a	-mo-
2D	me-	2d	me-	2a	-ri-
2D	-mo-	2d	-mo-	[1a	-a-
2D	-ri-	2d	-ri-	.	.
=95	=95	=95	=95	=95	=95
1D	-a-	1d	-a-	2a]	.
.	.	.	.	2b	.
1C	.	1e	.	1cc	.
=96	=96	=96	=96	=96	=96
1G	-le,	1d	-le,	1b	-le,
2r	.	2r	.	2r	.
[2G	[et	[2B	et	[2dd	et
=97	=97	=97	=97	=97	=97
2G]	.	2B]	.	2dd]	.
2G	me-	2B	me-	2dd	me-
2G	-mo-	2B	-mo-	2dd	-mo-
2G	-ri-	2B	-ri-	2dd	-ri-
=98	=98	=98	=98	=98	=98
1G	-a-	1B	-a-	1dd	-a-
1C	.	1c	.	1ee	.
=99	=99	=99	=99	=99	=99
1D	-le,]	1A	-le,	1dd	-le,
2r	.	2r	.	2r	.
[2D	et	[2d	[et	[2a	et
=100	=100	=100	=100	=100	=100
2D]	.	2d]	.	2a]	.
2D	me-	2d	me-	2a	me-
2G	-mo-	2d	-mo-	2b	-mo-
2D	-ri-	2d	-ri-	2a	-ri-
=101	=101	=101	=101	=101	=101
1G	-a-	1d	-a-	[0b	-a-
1E	.	1e	.	.	.
=102	=102	=102	=102	=102	=102
1G	-le	0d	-le]	1b]	.
1r	.	.	.	1a	-le
=103	=103	=103	=103	=103	=103
1F	tu-	1r	.	2r	.
.	.	.	.	1cc	tu-
2.C	.	1c	tu-	.	.
.	.	.	.	[2g	-um
4D	.	.	.	.	.
=104	=104	=104	=104	=104	=104
4E	.	1G	-um	4g]	.
4F	.	.	.	4a	.
1G	.	.	.	4b	.
.	.	.	.	4cc	.
.	.	2r	.	4dd	.
.	.	.	.	4b	.
2F	.	2A	non	2cc	.
=105	=105	=105	=105	=105	=105
1G	-um	1B	de-	4b	non
.	.	.	.	4a	.
.	.	.	.	4g	.
.	.	.	.	4f	.
1r	.	1c	.	2e	.
.	.	.	.	2g	de-
=106	=106	=106	=106	=106	=106
0r	.	2A	-re-	2a	.
.	.	2G	-lin-	2.b	-re-
.	.	2B	-que-	.	.
.	.	.	.	4a	-lin-
.	.	2c	.	[2g	-que-
=107	=107	=107	=107	=107	=107
2r	.	1A	.	2g]	.
2D	non	.	.	2f#i	.
1E	de-	1G	-tur	1g	-tur,
=108	=108	=108	=108	=108	=108
1F	.	0r	.	2r	.
.	.	.	.	2cc	non
2D	-re-	.	.	2dd	de-
2C	-lin-	.	.	[2ee	.
=109	=109	=109	=109	=109	=109
2E	-que-	2r	.	2ee]	.
2F	.	2.A	in	2cc	-re-
1D	.	.	.	1dd	-lin-
.	.	4G	.	.	.
.	.	4A	.	.	.
.	.	4B	.	.	.
=110	=110	=110	=110	=110	=110
1C	.	0c	.	0ee	-que-
[1c	.	.	.	.	.
=111	=111	=111	=111	=111	=111
2c]	.	0G	sae-	1.dd	.
4B	.	.	.	.	.
4A	.	.	.	.	.
1B	-tur	.	.	.	.
.	.	.	.	4cc	.
.	.	.	.	4b	.
=112	=112	=112	=112	=112	=112
1c	in	1F	-cu-	1a	.
1C	sae-	1G	.	1cc	-tur
=113	=113	=113	=113	=113	=113
1BB	-cu-	[0Gl	-la.	1dd	in
1C	.	.	.	[1ee	.
=114	=114	=114	=114	=114	=114
0C	-la.	0G_	.	2ee]	.
.	.	.	.	2dd	.
.	.	.	.	1cc	sae-
=115	=115	=115	=115	=115	=115
[0Gl	.	0G_	.	[0b	.
=116	=116	=116	=116	=116	=116
0G_	.	0G_	.	1b]	.
.	.	.	.	1g	-cu-
=117	=117	=117	=117	=117	=117
00G]	.	00G]	.	00gl	-la.
==	==	==	==	==	==
*-	*-	*-	*-	*-	*-
!!!system-decoration: [*]
!!!RDF**kern: i = editorial accidental
!!!RDF**kern: l = terminal long
!!!PTL: <i> New Senfl Edition: Motets for Four Voices (A-I) </i>
!!!PPR: Hollitzer Verlag
!!!PC#: Denkmäler der Tonkunst in Österreich 163.1
!!!PDT: 2021
!!!PED: Scott Lee Edwards, Stefan Gasch, and Sonja Tröster
!!!YEC: Copyright 2021 Denkmäler der Tonkunst in Österreich
!!!YEM: CC-BY-NC 4.0 (https://creativecommons.org/licenses/by-nc/4.0/legalcode)
!!!EED: Benjamin Ory
!!!EEV: 2023/11/18
!!!verovio: header true
!!!header-left: @{PTL}\n@{PED}, eds.\n@{PC#} (@{PDT})&nbsp;\n
!!!header-right:
!!!header-center:
